2 Export/Icons/Brands/Google Drive.svg

<svg xmlns="http://www.w3.org/2000/svg" xmlns:xlink="http://www.w3.org/1999/xlink" width="24" height="24" viewBox="0 0 24 24">
  <defs>
    <path id="google-drive-a" d="M6.32475,19.59325 L9.32475,14.3965 L21,14.3965 L18,19.59325 L6.32475,19.59325 Z M8.99925,14.3965 L6.00075,19.59325 L3,14.3965 L8.83875,4.28125 L11.838,9.4795 L8.99925,14.3965 Z M20.83725,14.11525 L14.838,14.11525 L8.99925,4 L15.00075,4 L20.8395,14.1145 L20.83725,14.1145 L20.83725,14.11525 Z"/>
  </defs>
  <g fill="none" fill-rule="evenodd">
    <polygon points="0 0 24 0 24 24 0 24"/>
    <mask id="google-drive-b" fill="#fff">
      <use xlink:href="#google-drive-a"/>
    </mask>
    <use fill="#000" xlink:href="#google-drive-a"/>
    <g fill="#000" mask="url(#google-drive-b)">
      <rect width="24" height="24"/>
    </g>
  </g>
</svg>

<svg xmlns="http://www.w3.org/2000/svg" xmlns:xlink="http://www.w3.org/1999/xlink" width="24" height="24" viewBox="0 0 24 24">
  <defs>
    <path id="google-drive-a" d="M6.325 19.593l3-5.197H21l-3 5.197H6.325zm2.674-5.197l-2.998 5.197L3 14.396 8.839 4.281l2.999 5.199-2.839 4.916zm11.838-.28h-5.999L8.999 4h6.002l5.839 10.114h-.003v.001z"/>
  </defs>
  <g fill="none" fill-rule="evenodd">
    <polygon points="0 0 24 0 24 24 0 24"/>
    <mask id="google-drive-b" fill="#fff">
      <use xlink:href="#google-drive-a"/>
    </mask>
    <use fill="#000" xlink:href="#google-drive-a"/>
    <g fill="#000" mask="url(#google-drive-b)">
      <rect width="24" height="24"/>
    </g>
  </g>
</svg>
